X:1
T: Lady of the Lake
M: 4/4
L: 1/8
%Q: 180
S: John Hartford's "Wild Hog in the Redbrush" transcribed by Llarry Brandon
K: Em
z2 | A2B2 c2d2 | egfa g2.dc | BAGA Bcd2 | BcBc dcBc | ABAB cBcd |
| egfa gfef | gbge dcBc | AF D4 :: eg | a4 a4 | abag e2ef | gfge dega |
| bagf e2eg | a2a2 a2a2 | abag edef | gedg edBd | AF D4 :|
